X: 1
T:Evergreen Lasses - Reel
M:C|
L:1/8
R:reel
B:Ryan's Mammoth Collection
N:156
Z:Contributed by Ray Davies,  ray:davies99.freeserve.co.uk
K:Em
vG/F/"^Segno"|]\
EFGA BFGE | D2((3FED) ADFD | EFGA BFGc | BdAc BAGF |
EFGA BFGE | D2((3FED) ADFD | EFGA BFGc | BdAc BGG |]
uf|\
gfef gfeg | fdaf bgaf | gfef gfed | BdAc BEEf |
gfef gfeg | fgag fdef | g2ba gfed | BdAc BAGF "^Segno"|]
